images/icons/zoom.svg

<svg fill="none" height="24" viewBox="0 0 24 24" width="24" xmlns="http://www.w3.org/2000/svg"><path d="m16.5 17.75c0 1.2426-1.0074 2.25-2.25 2.25h-9.75c-2.48529 0-4.5-2.0147-4.5-4.5v-8.25c0-1.24255 1.00736-2.25 2.25-2.25h9.75c2.4853 0 4.5 2.01471 4.5 4.5zm5.7-11.40014-3.3 2.47501c-.5666.42493-.9 1.09181-.9 1.80003l.0001 3.75c0 .7082.3334 1.375.8999 1.8l3.3 2.475c.7416.5562 1.8.027 1.8-.9v-10.50002c0-.92705-1.0584-1.45625-1.8-.90002z" fill="#fff"/></svg>

<svg width="24" height="24" viewBox="0 0 24 24" fill="none" xmlns="http://www.w3.org/2000/svg">
<path d="M16.5 17.75C16.5 18.9926 15.4926 20 14.25 20H4.5C2.01471 20 0 17.9853 0 15.5V7.25C0 6.00745 1.00736 5 2.25 5H12C14.4853 5 16.5 7.01471 16.5 9.5V17.75ZM22.2 6.34986L18.9 8.82487C18.3334 9.2498 18 9.91668 18 10.6249L18.0001 14.3749C18.0001 15.0831 18.3335 15.7499 18.9 16.1749L22.2 18.6499C22.9416 19.2061 24 18.6769 24 17.7499V7.24988C24 6.32283 22.9416 5.79363 22.2 6.34986Z" fill="white"/>
</svg>
